X:20
T:(Cauld Kail) A noys. way of the 2d. measure wt. gatherings
S:George Skene's MS, NLS Adv.MS.5.2.21, 1715
Z:Jack Campin 1998
M:4/4
L:1/8
K:D
e|\
"||"cA A/~A/A "||"BG G/~G/G|"||"cA A/A/~A A/~A/A A/~A/A|\
"//"cA A/~A/A BG G/~G/G|"||"c/~B/A c/e/a "="e2d:|
